src/assets/images/bg-today-small.svg

<svg width="343" height="286" viewBox="0 0 343 286" fill="none" xmlns="http://www.w3.org/2000/svg">
<g clip-path="url(#clip0_193_1567)">
<rect width="343" height="286" rx="20" fill="url(#paint0_linear_193_1567)"/>
<path d="M0.198242 354.638C3.0235 317.884 35.1534 290.377 71.9656 293.192C79.961 293.805 87.5205 295.8 94.4263 298.92C95.1568 297.936 95.8896 296.954 96.6523 295.998C96.6721 295.691 96.6746 295.39 96.6969 295.083C99.5197 258.329 131.65 230.822 168.462 233.637C180.303 234.542 191.175 238.487 200.399 244.627C208.973 219.689 233.581 202.67 261.142 204.778C278.643 206.118 293.79 214.901 303.709 227.777C316.114 189.999 353.085 164.089 394.567 167.263C428.574 169.866 456.598 191.336 469.177 220.603C478.638 216.641 489.152 214.784 500.086 215.622C536.898 218.438 564.455 250.515 561.635 287.267C561.565 288.167 561.466 289.057 561.362 289.947C568.429 288.728 575.761 288.347 583.239 288.918C631.981 292.648 668.471 335.12 664.737 383.781C660.998 432.443 618.456 468.871 569.709 465.141C568.684 465.062 567.671 464.94 566.656 464.829C555.152 481.415 535.393 491.644 513.789 489.993C498.264 488.806 484.618 481.69 474.882 471.053C446.793 494.492 409.892 507.457 370.507 504.441C343.809 502.399 319.373 493.253 298.851 479.047C285.69 497.406 263.522 508.653 239.33 506.802C216.6 505.064 197.412 492.163 186.711 473.903C174.216 483.2 158.441 488.218 141.683 486.935C108.206 484.372 82.3926 457.614 80.1071 425.146C74.2041 426.335 68.046 426.76 61.7443 426.28C24.9346 423.467 -2.61957 391.392 0.198242 354.638Z" fill="url(#paint1_linear_193_1567)"/>
<path d="M74.2661 222.173C65.5534 224.348 57.459 227.725 50.0868 232.052C25.2867 192.796 -22.7181 171.963 -70.2579 183.826C-125.123 197.517 -160.083 249.938 -153.298 304.641C-160.027 304.286 -166.923 304.907 -173.803 306.624C-211.039 315.915 -233.695 353.614 -224.409 390.829C-215.123 428.044 -177.41 450.678 -140.174 441.386C-131.922 439.327 -124.392 435.868 -117.759 431.33C-98.9729 450.308 -70.9482 459.186 -43.1491 452.249C-25.2988 447.794 -10.4397 437.529 -0.0490979 423.986C15.4861 431.06 33.4239 433.141 51.2784 428.685C68.4107 424.41 82.8007 414.787 93.1165 402.048C101.46 402.338 109.981 401.511 118.486 399.388C167.451 387.17 197.247 337.591 185.035 288.655C172.823 239.718 123.231 209.955 74.2661 222.173Z" fill="url(#paint2_linear_193_1567)"/>
<path opacity="0.2" d="M-0.500002 33.3011L1.7902 29L1.72385 33.8241L5.8459 31.0313L3.43811 35.2734L8.44818 34.6288L4.25 37.3169L9 38.9683L3.97409 39.4867L7.37583 43.0554L2.67295 41.2852L3.94733 45.954L0.645097 42.3011L-0.500002 47L-1.64509 42.3011L-4.94733 45.954L-3.67295 41.2852L-8.37546 43.0554L-4.97371 39.4867L-10 38.9683L-5.25 37.3169L-9.44781 34.6288L-4.43773 35.2734L-6.8459 31.0313L-2.72347 33.8241L-2.79019 29L-0.500002 33.3011Z" fill="white"/>
<path d="M285 17.1692L286.688 14L286.639 17.5546L289.676 15.4968L287.902 18.6225L291.593 18.1475L288.5 20.1283L292 21.3451L288.297 21.7271L290.803 24.3566L287.338 23.0523L288.277 26.4924L285.844 23.8008L285 27.2632L284.156 23.8008L281.723 26.4924L282.662 23.0523L279.197 24.3566L281.704 21.7271L278 21.3451L281.5 20.1283L278.407 18.1475L282.099 18.6225L280.324 15.4968L283.362 17.5546L283.312 14L285 17.1692Z" fill="#FF820A"/>
<path opacity="0.2" d="M306.5 245.301L308.79 241L308.724 245.824L312.846 243.031L310.438 247.273L315.448 246.629L311.25 249.317L316 250.968L310.974 251.487L314.376 255.055L309.673 253.285L310.947 257.954L307.645 254.301L306.5 259L305.355 254.301L302.053 257.954L303.327 253.285L298.625 255.055L302.026 251.487L297 250.968L301.75 249.317L297.552 246.629L302.562 247.273L300.154 243.031L304.277 245.824L304.21 241L306.5 245.301Z" fill="white"/>
<path d="M41.5 246.301L43.7902 242L43.7239 246.824L47.8459 244.031L45.4381 248.273L50.4482 247.629L46.25 250.317L51 251.968L45.9741 252.487L49.3758 256.055L44.6729 254.285L45.9473 258.954L42.6451 255.301L41.5 260L40.3549 255.301L37.0527 258.954L38.3271 254.285L33.6245 256.055L37.0263 252.487L32 251.968L36.75 250.317L32.5522 247.629L37.5623 248.273L35.1541 244.031L39.2765 246.824L39.2098 242L41.5 246.301Z" fill="#FF820A"/>
</g>
<defs>
<linearGradient id="paint0_linear_193_1567" x1="-27.7841" y1="-44.6275" x2="362.025" y2="-11.9574" gradientUnits="userSpaceOnUse">
<stop stop-color="#4658D9"/>
<stop offset="1" stop-color="#2B1B9C"/>
</linearGradient>
<linearGradient id="paint1_linear_193_1567" x1="60.5" y1="315" x2="532.631" y2="289.913" gradientUnits="userSpaceOnUse">
<stop stop-color="#332CAD"/>
<stop offset="1" stop-color="#332DAD"/>
</linearGradient>
<linearGradient id="paint2_linear_193_1567" x1="190.988" y1="252.622" x2="-85.1093" y2="270.167" gradientUnits="userSpaceOnUse">
<stop stop-color="#3E45C5"/>
<stop offset="1" stop-color="#3E46C7"/>
</linearGradient>
<clipPath id="clip0_193_1567">
<rect width="343" height="286" rx="20" fill="white"/>
</clipPath>
</defs>
</svg>

<svg xmlns="http://www.w3.org/2000/svg" width="343" height="286" fill="none" viewBox="0 0 343 286"><g filter="url(#a)"><g clip-path="url(#b)"><rect width="343" height="286" fill="url(#c)" rx="20"/><path fill="url(#d)" d="M.198 354.638c2.825-36.754 34.955-64.261 71.768-61.446a66.862 66.862 0 0 1 22.46 5.728c.73-.984 1.464-1.966 2.226-2.922.02-.307.023-.608.045-.915 2.823-36.754 34.953-64.261 71.765-61.446a66.611 66.611 0 0 1 31.937 10.99c8.574-24.938 33.182-41.957 60.743-39.849 17.501 1.34 32.648 10.123 42.567 22.999 12.405-37.778 49.376-63.688 90.858-60.514 34.007 2.603 62.031 24.073 74.61 53.34a66.612 66.612 0 0 1 30.909-4.981c36.812 2.816 64.369 34.893 61.549 71.645-.07.9-.169 1.79-.273 2.68a88.794 88.794 0 0 1 21.877-1.029c48.742 3.73 85.232 46.202 81.498 94.863-3.739 48.662-46.281 85.09-95.028 81.36-1.025-.079-2.038-.201-3.053-.312-11.504 16.586-31.263 26.815-52.867 25.164-15.525-1.187-29.171-8.303-38.907-18.94-28.089 23.439-64.99 36.404-104.375 33.388-26.698-2.042-51.134-11.188-71.656-25.394-13.161 18.359-35.329 29.606-59.521 27.755-22.73-1.738-41.918-14.639-52.619-32.899-12.495 9.297-28.27 14.315-45.028 13.032-33.477-2.563-59.29-29.321-61.576-61.789a67.053 67.053 0 0 1-18.363 1.134C24.934 423.467-2.62 391.392.198 354.638Z"/><path fill="url(#e)" d="M74.266 222.173a91.45 91.45 0 0 0-24.18 9.879c-24.8-39.256-72.804-60.089-120.344-48.226-54.865 13.691-89.825 66.112-83.04 120.815a69.452 69.452 0 0 0-20.505 1.983c-37.236 9.291-59.892 46.99-50.606 84.205 9.286 37.215 46.999 59.849 84.235 50.557a69.328 69.328 0 0 0 22.415-10.056c18.786 18.978 46.81 27.856 74.61 20.919 17.85-4.455 32.71-14.72 43.1-28.263 15.535 7.074 33.473 9.155 51.327 4.699 17.133-4.275 31.523-13.898 41.839-26.637a91.451 91.451 0 0 0 25.369-2.66c48.965-12.218 78.761-61.797 66.549-110.733-12.212-48.937-61.804-78.7-110.769-66.482Z"/><path fill="#fff" d="M-.5 33.301 1.79 29l-.066 4.824 4.122-2.793-2.408 4.242 5.01-.644-4.198 2.688L9 38.968l-5.026.519 3.402 3.568-4.703-1.77 1.274 4.669-3.302-3.653L-.5 47l-1.145-4.699-3.302 3.653 1.274-4.669-4.702 1.77 3.401-3.568-5.026-.519 4.75-1.651-4.198-2.688 5.01.644-2.408-4.242 4.123 2.793L-2.79 29l2.29 4.301Z" opacity=".2"/><path fill="#FF820A" d="m285 17.17 1.688-3.17-.049 3.555 3.037-2.058-1.774 3.125 3.691-.474-3.093 1.98 3.5 1.217-3.703.382 2.506 2.63-3.465-1.305.939 3.44-2.433-2.691-.844 3.462-.844-3.462-2.433 2.691.939-3.44-3.465 1.305 2.507-2.63-3.704-.382 3.5-1.217-3.093-1.98 3.692.474-1.775-3.125 3.038 2.058-.05-3.555L285 17.17Z"/><path fill="#fff" d="m306.5 245.301 2.29-4.301-.066 4.824 4.122-2.793-2.408 4.242 5.01-.644-4.198 2.688 4.75 1.651-5.026.519 3.402 3.568-4.703-1.77 1.274 4.669-3.302-3.653L306.5 259l-1.145-4.699-3.302 3.653 1.274-4.669-4.702 1.77 3.401-3.568-5.026-.519 4.75-1.651-4.198-2.688 5.01.644-2.408-4.242 4.123 2.793-.067-4.824 2.29 4.301Z" opacity=".2"/><path fill="#FF820A" d="M41.5 246.301 43.79 242l-.066 4.824 4.122-2.793-2.408 4.242 5.01-.644-4.198 2.688 4.75 1.651-5.026.519 3.402 3.568-4.703-1.77 1.274 4.669-3.302-3.653L41.5 260l-1.145-4.699-3.302 3.653 1.274-4.669-4.703 1.77 3.402-3.568-5.026-.519 4.75-1.651-4.198-2.688 5.01.644-2.408-4.242 4.122 2.793L39.21 242l2.29 4.301Z"/></g></g><defs><linearGradient id="c" x1="-27.784" x2="362.025" y1="-44.627" y2="-11.957" gradientUnits="userSpaceOnUse"><stop stop-color="#4658D9"/><stop offset="1" stop-color="#2B1B9C"/></linearGradient><linearGradient id="d" x1="60.5" x2="532.631" y1="315" y2="289.913" gradientUnits="userSpaceOnUse"><stop stop-color="#332CAD"/><stop offset="1" stop-color="#332DAD"/></linearGradient><linearGradient id="e" x1="190.988" x2="-85.109" y1="252.622" y2="270.167" gradientUnits="userSpaceOnUse"><stop stop-color="#3E45C5"/><stop offset="1" stop-color="#3E46C7"/></linearGradient><clipPath id="b"><rect width="343" height="286" fill="#fff" rx="20"/></clipPath><filter id="a" width="343" height="286" x="0" y="0" color-interpolation-filters="sRGB" filterUnits="userSpaceOnUse"><feFlood flood-opacity="0" result="BackgroundImageFix"/><feBlend in="SourceGraphic" in2="BackgroundImageFix" result="shape"/><feTurbulence baseFrequency="1 1" numOctaves="3" result="noise" seed="6859" stitchTiles="stitch" type="fractalNoise"/><feColorMatrix in="noise" result="alphaNoise" type="luminanceToAlpha"/><feComponentTransfer in="alphaNoise" result="coloredNoise1"><feFuncA tableValues="0 0 0 0 0 0 0 0 0 0 0 0 0 0 0 0 0 0 0 0 0 1 1 1 1 1 1 1 1 1 0 0 0 0 0 0 0 0 0 0 0 0 0 0 0 0 0 0 0 0 0 0 0 0 0 0 0 0 0 0 0 0 0 0 0 0 0 0 0 0 0 0 0 0 0 0 0 0 0 0 0 0 0 0 0 0 0 0 0 0 0 0 0 0 0 0 0 0 0 0" type="discrete"/></feComponentTransfer><feComposite in="coloredNoise1" in2="shape" operator="in" result="noise1Clipped"/><feFlood flood-color="rgba(255, 255, 255, 0.3)" result="color1Flood"/><feComposite in="color1Flood" in2="noise1Clipped" operator="in" result="color1"/><feMerge result="effect1_noise_193_1567"><feMergeNode in="shape"/><feMergeNode in="color1"/></feMerge></filter></defs></svg>
